X:1
T:Te Deum from Short Service - Gibbons
T:James Gibb editions
T:#
%%score [ 1 2 ( 3 4 ) 5 ]
L:1/8
Q:1/4=100
M:3/2
K:Ab
V:1 treble nm="Treble" snm="S"
V:2 treble nm="Alto" snm="A"
V:3 treble-8 nm="Tenor" snm="T"
V:4 treble-8 
V:5 bass nm="Bass" snm="B"
V:1
"^Te Deum from Short Service""^Full"!f! A4 A2 A2 B4 | c4 c2 e4 =d2 |[M:2/2] e2 A2 B2 B2 | %3
w: We praise thee, O|God: we know- ledge|thee to be the|
 c2 c4"^Orlando Gibbons\n(1583-1625)" B2 |[M:2/2] d2 c2 B2 A2 | G2 B2 d3 c | A2 c2 B4 | %7
w: Lord. All the|earth doth wor- ship|thee, the Fa- ther|ev- er- last-|
 B4 z2"^Dec." B2 | B2 c2 A2 (Bc) |[M:2/2] d2 d2 d4 | z2 B2 B3 c | =d2 e2 e2 d2 | %12
w: ing. To|thee all an- gels *|cry a- loud:|the heavens, and|all the powers there-|
 e2"^Can."!mf! B4 B2 | B2 c2 A2 A2 | B (cde) c2"^dim." c2 | BB c2 A2 A2 | %16
w: in. To thee|che- ru- bin, and|se- ra\- * * phin con-|ti- nu- al- ly do|
[M:3/2] G2"^Full" e3 d !>!c2 B2 !>!e2- |[M:2/2] ed"^cresc." c2 !>!B3 A | B2 (E2 e4) | %19
w: cry, Ho- ly, Ho- ly, Ho\-|* ly, Lord God of|Sa- ba\- *|
 c2"^Dec."!f! c4 B2 | A2 A2 B2 cc |[M:2/2] d3 d c2 e2- | e2 d2 c4 | c2 A2 AA A2 | A3 A A2 B2- | %25
w: oth; Heaven and|earth are full of the|ma- je- sty of|* thy glo-|ry. The glo- ri- ous|com- pa- ny of|
 B2 BA G2 A2- | A2 G2 A2"^Dec." A2 | A2 A2 A3 A | A2 B4 A2 | G2 A4 G2 | A2"^Can." c2 c3 d | %31
w: * the a- pos- tles|* praise thee. The|good- ly fel- low-|ship of the|pro- phets praise|thee. The no- ble|
 e2 d4 c2 | B2 B2 B4 | B2"^Dec." B2 B2 c2 | d2 (c3 d) e2 | A2 (Bc) d2 B2 | B2 B2 B2"^Can." B2 | %37
w: ar- my of|mar- tyrs praise|thee. The ho- ly|church through\- * out|all the * world doth|know- ledge thee; The|
 c3 B A2 A2 | Bc d2 c2 B2 | B4 z2"^Dec." B2 | c3 B A2 A2 | (Bc) d2 c2 B2 | A2"^Can." A2 A3 B | %43
w: Fa- ther, of an|in- fi- nite ma- jes-|ty; Thine|ho- nour- a- ble,|true, * and on- ly|Son; Al- so the|
 c2 d2 e2[Q:1/4=97] f2 |"^poco rit."[Q:1/4=92] e3[Q:1/4=88] d[Q:1/4=88] c4 | %45
w: Ho- ly Ghost, the|Com- for- ter.|
 z2"^Full, a tempo"!f![Q:1/4=100] c2 c2 c2 | e4 d2 c2- | cB B2 =A4 |[M:2/2] z2 c2 c2 e2 | c4 c4 | %50
w: Thou art the|King of glo\-|* ry, O Christ,|of glo- ry,|O Christ,|
"^Dec." c4 c2 e2 |[M:3/2] d2 c2 e2 B2 d2 cc | B4 A2"^Can."!p! A4 B2 |[M:2/2] c2 A2 d4 | c2 e4 d2 | %55
w: Thou art the|ev- er- last- ing Son of the|Fa- ther. When thou|took'st up- on|thee to de-|
 d2 c2 B2 B2 | c2 BA d4 |[M:2/2] c2 B4 A2 | G2"^cresc.""^Dec." B2 G2 E2 | e3 d c2 A2 | d2 dc B4 | %61
w: liv- er man, thou|didst not ab- hor|the Vir- gin's|womb. When thou hadst|o- ver- come the|sharp- ness of death,|
[M:2/2] z2!f!"^Full" cB A2 AA | Bc d2 c2 B2 |[M:3/2] A2 c2 (B2 A4 G2) |[M:2/2] A2"^Can." c2 e3 d | %65
w: thou didst o- pen the|king- dom of heaven to|all be- liev\- * *|ers. Thou sit- test|
 c2 A2 d2 dc | B4 z2 cB | A2 A2 B(c d2) |[M:2/2] (c2 B2 A4) | G2"^Dec."!p! B4 c2 | A2 A2 B2 d2 | %71
w: at the right hand of|God, in the|glo- ry of the *|Fa\- * *|ther. We be-|lieve that thou shalt|
 c2 B2 B2 A2 |[M:2/2] G2 B2 d3 c | !>!A3 B cd !>!e2- | e2 B2 z2"^cresc." d2- | de f3 c!>!cd | %76
w: come to be our|judge. We there- fore|pray thee, help thy ser\-|* vants, whom|* thou hast re- deem- ed|
 e2 e2 e2 =d2 | e4 z2"^Can."!f! !>!c2- | cBcA d2 c2- | c2 B4 A2 | G2 c2 e3 e | e2 d2 c4 | %82
w: with thy pre- cious|blood. Make|* them to be num- bered|* with thy|saints in glo- ry|e- ver- last-|
 c2"^Dec."!p! c4 c2 | B2 A2 d4 | c2 c2 e4 | d2 c3 (F B2) | =A2"^Can." c4 c2 | %87
w: ing. O Lord,|save thy peo-|ple, and bless|thine he- ri\- *|tage. Go- vern|
 B2 !courtesy!_A2 d2 d2 | c2 B2 A4 | G2"^Dec."!f! !>!B4 E2 | !>!B4 z2 B2 | BB E2 B4 | %92
w: them, and lift them|up for ev-|er. Day by|day we|mag- ni- fy thee;|
 z2 B2 B2 !>!e2- | ee c2 e4 | z2 c3 d !>!e2 | f2 e2 !>!A4 | z2"^Can."!p! e2 e2 =d2 | %97
w: And we wor\-|* ship thy name|ev- er world|with- out end.|Vouch- safe, O|
 e2 E2"^/'" A2 Bd | c2 B2 G4 | =A2"^Dec." f2 f2 f2 | e2 AA d4 | c2 c2 e4 | d2 c2 B4 | %103
w: Lord, to keep us this|day with- out|sin. O Lord, have|mer- cy up- on|us, have mer-|cy up- on|
 c4"^Full""^cresc." c4 | B4 A2 A2 | d4 c4 |!mf! !>!e3 B d2 !>!c2- | c2 B2 z4 | %108
w: us. O|Lord, let thy|mer- cy|light- en up- on|* us,|
[M:3/2] GA B3 A- A4 G2 |[M:2/2] A2 c2 e4 | z2 A2 A2 FF | A2 A2 z2!f! F2- | FGAF d4- | d2 B2 B4 | %114
w: as our trust is * in|thee. O Lord,|in thee have I|trust- ed: let|* me nev- er be|* con- found-|
[Q:1/4=96] B8 | %115
w: ed,|
[M:3/2][Q:1/4=93] B[Q:1/4=92]c[Q:1/4=91]!>!d[Q:1/4=91]B[Q:1/4=89] e2[Q:1/4=88] (d[Q:1/4=88]c)[Q:1/4=86] !>!B4 | %116
w: let me nev- er be con\- * found-|
[Q:1/4=85] !fermata!A8 |] %117
w: ed.|
V:2
"^Full"!f! E4 F2 A4 G2 | A4 E4 E2 F2 |[M:2/2] G2 A2 A2 G2 | A2 A4 G2 |[M:2/2] F2 A2 G2 E2 | %5
w: We praise thee, O|God: we know- ledge|thee to be the|Lord. All the|earth doth wor- ship|
 E2 G2 FF F2- | FE (E4 =D2) | E4 z2"^Dec." G2 | G2 E2 F2 G2 |[M:2/2] A2 A2 A4 | z2 D2 _G2 G2 | %11
w: thee, the Fa- ther ev\-|* er- last\- *|ing. To|thee all an- gels|cry a- loud:|the heavens, and|
 F2 B,2 B2 B2 | G2"^Can."!mf! G4 G2 | G2 A2 F3 E | D2 B,2 E2"^dim." E2 | EE E2 E2 =D2 | %16
w: all the powers there-|in. To thee|che- ru- bin, and|se- ra- phin con-|ti- nu- al- ly do|
[M:3/2] E8"^Full" E3 F |[M:2/2] G2 C2 !>!E2 E"^cresc."F | GE !>!A4 G2 | A2"^Dec."!f! A4 G2 | %20
w: cry, Ho- ly,|Ho- ly, Ho- ly, Lord|God of Sa- ba-|oth; Heaven and|
 F2 F2 F2 EE |[M:2/2] F2 B,2 E2 A2- | A2 F2- F2 =E2 | F2"^Can." F2 FF F2 | E3 E F2 _G2- | %25
w: earth are full of the|ma- jes- ty of|* thy * glo-|ry. The glo- ri- ous|com- pa- ny of|
 G2 FF E2 D2 | E4 E2"^Dec." F2 | F2 F2 E3 E | F2 B,3 (C D2) | E2 F2 E4 | C2"^Can." A2 A2 A2 | %31
w: * the a- pos- tles|praise thee. The|good- ly fel- low-|ship of the *|pro- phets praise|thee. The no- ble|
 G2 A2 B2 A2- | A2 G2 F4 | G2"^Dec." G2 G2 A2 | F2 A4 G2 | FF F2- FE E2- | E2 =D2 E2"^Can." G2 | %37
w: ar- my of mar\-|* tyrs praise|thee. The ho- ly|ohurch through- out|all the world * doth know\-|* ledge thee; The|
 E2 E2 FG A2 | G2 F2 E2 G2 | F2"^Dec." F2 G3 F | E2 E2 (FG) A2 | (G2 F2 E3) D | %42
w: Fa- ther, of an in-|fi- nite ma- jes-|ty; Thine ho- nour-|a- ble, true, * and|on\- * * ly|
 C2"^Can." E2 E2 E2 | E2 F2 G2 A2 |"^poco rit." A2 G2 A4 | z2"^Full, a tempo"!f! A2 A2 A2 | %46
w: Son; Al- so the|Ho- ly Ghost, the|Com- for- ter.|Thou art the|
 G3 G F2 E2 | F4 F4 |[M:2/2] z2 !courtesy!_A2 A2 G2 | F4 =E4 |"^Dec." !courtesy!_E4 E2 E2 | %51
w: King of glo- ry,|O Christ,|of glo- ry,|O Christ,|Thou art the|
[M:3/2] F2 A2 G3 G F2 EE | E4 C2"^Can."!p! E4 E2 |[M:2/2] E2 A4 G2 | A2 G4 A2 | B2 A2 G2 G2 | %56
w: ev- er- last- ing Son of the|Fa- ther. When thou|took'st up- on|thee to de-|liv- er man, thou|
 A2 z A2 (A G2) |[M:2/2] A2 F2 E2 E2 | E4 z2"^cresc.""^Dec." B,2 | C2 C2 E3 E | F2 F2 G2 GF | %61
w: didst not ab\- *|hor the Vir- gin's|womb. When|thou hadst o- ver-|come the sharp- ness of|
[M:2/2] E4 z2!f!"^Full" FE | D2 DD EF _G2 |[M:3/2] F2 F2 D2 F2 (E3 D) |[M:2/2] C4 z2"^Can." E2 | %65
w: death, thou didst|o- pen the king- dom of|heaven to all be- liev\- *|ers. Thou|
 E2 E2 F2 F2 | G2 GF E2 EE | F2 A2 G2 F2 |[M:2/2] (E6 =D2) | E2"^Dec."!p! E4 E2 | F3 E D2 B,2 | %71
w: sit- test at the|right hand of God, in the|glo- ry of the|Fa\- *|ther. We be-|lieve that thou shalt|
 E2 D2 D2 C2 |[M:2/2] B,4 z4 | F2 A3 G !>!E2- | EFGA !>!B4 | F2"^cresc." !>!F3 G A2- | %76
w: come to be our|judge.|We there- fore pray|* thee, help thy ser-|vants, whom thou hast|
 AE!>!EF GE !>!A2- | A(A G2) !>!A4 | z2!f!"^Can." !>!A2- AGAE | !>!A2 G2 G2 F2 | =E2 _E2 A3 A | %81
w: * re- deem- ed with thy pre\-|* cious * blood.|Make * them to be|num- bered with thy|saints in glo- ry|
 A2 F4 =E2 | F2!p!"^Dec." !courtesy!_A4 A2 | G2 F2 A4 | A4 z2 E2 | F2 (AG) F2 F2 | %86
w: e- ver- last-|ing. O Lord,|save thy peo-|ple, and|bless thine * he- ri-|
 F2"^Can." !courtesy!_A4 A2 | G2 F2 A2 (A,B,) | CD (E4 =D2) | E4 z2"^Dec."!f! E2- | E2 =D2 E4 | %91
w: tage. Go- vern|them, and lift them *|up for ev\- *|er. Day|* by day|
 z2 E2 EE =D2 | E4 z2 E2 | E2 !>!E3 A G2 | A4 z2 C2- | CD !>!E2 F2 E2 | !>!C2"^Can."!p! E2 E2 F2 | %97
w: we mag- ni- fy|thee; And|we wor- ship thy|name ev\-|* er world with- out|end. Vouch- safe, O|
 B,2 B,2 C2 DB, | EC (F4 =E2) | F2"^Dec." !courtesy!_A2 A2 A2 | A3 A A2 G2 | A6 G2 | B2 A2 A2 G2 | %103
w: Lord, to keep us this|day with- out *|sin. O Lord, have|mer- cy up- on|us, have|mer- cy up- on|
 A4"^cresc.""^Full" A4 | G4 F2 F2 | A4 A4 | z4 z2!mf! !>!A2- | AE _G2 !>!F2 E2 | %108
w: us. O|Lord, let thy|mer- cy|light\-|* en up- on us,|
[M:3/2] EF !>!_G2 F2 E2 !>!E4- |[M:2/2] E4 z2 C2 | E4 z2 D2 | D2 EE F2 F2 | z2!f! F3 GAF | B6 _G2 | %114
w: as our trust is in thee.|* O|Lord, in|thee have I trust- ed:|let me nev- er|be con-|
 F4"^poco rit." E2 EF |[M:3/2] !>!GE B3 A (!>!A4 G2) | !fermata!A8 |] %117
w: found- ed, let me|nev- er be con- found\- *|ed.|
V:3
"^Full"!f! c4 d2 e2 (f2 e2) | e6 c2 B2 A2 |[M:2/2] B2 c2 B2 B2 | A2 c4 e2 | %4
w: We praise thee, O *|God: we know- ledge|thee to be the|Lord. All the|
[M:2/2][K:treble-8] d (Bcd) e2 c2 | B4 z2 B2 | FGAG (FE F2) | G4 z2"^Dec." e2 | e2 c2 d3 e | %9
w: earth doth * * wor- ship|thee, the|Fa- ther ev- er- last\- * *|ing. To|thee all an- gels|
[M:2/2][K:treble-8] f2 f2 f4 | z2 B2 d2 e2 | f2 _g2 f2 f2 | e2"^Can."!mf! B4 B2 | B2 E2 FG A2- | %14
w: cry a- loud;|the heavens, and|all the powers there-|in. To thee|che- ru- bin, and se\-|
 A2 G2 A2"^dim." c2 | e2 cc c2 (BA) |[M:3/2] B4 z2"^Full" e3 d !>!c2 | %17
w: * ra- phin con-|ti- nu- al- ly do *|cry, Ho- ly, Ho-|
[M:2/2][K:treble-8] B2 !>!e3 d"^cresc." c2 | !>!B2 c2 B3 B | !courtesy!_A2"^Dec."!f! c4 e2 | %20
w: ly, Ho- ly, Lord|God Of Sa- ba-|oth; Heaven and|
 A2 c2 F2 AA | A2 G2 A2 c2- | c2 B2 G4 | =A2"^Can." c2 _AA d2 | d2 c2 d2 B2- | Bc d2 B2 A2 | %26
w: earth are full of the|ma- jes- ty of|* thy glo-|ry. The glo- ri- ous|com- pa- ny of|* the a- pos- tles|
 B4 c2"^Dec." c2 | A2 d2 d2 c2 | d2 d3 (e f2) | B2 d2 B4 | A2"^Can." e2 e2 f2 | e2 f2 B2 c2 | %32
w: praise thee. The|good- ly fel- low-|ship of the *|pro- phets praise|thee. The no- ble|ar- my of mar-|
 =d2 (e4 d2) | e2"^Dec." e2 e2 e2 | d2 (A3 B) c2 | d3 A B2 G2 | F2 F2 G2"^Can." e2 | c2 c2 d2 c2 | %38
w: tyrs praise *|thee. The ho- ly|church through\- * out|all the world doth|know- ledge thee; The|Fa- ther, of an|
 ee A2 (c2 e2- | e2 =d2 e2"^Dec." e2 | c2 c2 d2 c2 | eE(F A2) (A) G2) | A2"^Can." c2 c3 B | %43
w: in- fi- nite ma\- *|* jes- ty; Thine|ho- nour- a- ble,|true, and on\- * ly *|Son; Al- so the|
 A2 A2 B2 d2 |"^poco rit." B2 B2 A4 | z2"^Full, a tempo"!f! c2 c2 f2 | e3 e A2 c2 | d4 c4 | %48
w: Ho- ly Ghost, the|Com- for- ter.|Thou art the|King of glo- ry,|O Christ,|
 z2 c2 c2 B2 | A4 G4 |"^Dec." c4 c2 B2 |[M:3/2] B2 A2 B3 E F2 A2 | A2 G2 A2"^Can."!p! c4 e2 | %53
w: of glo- ry,|O Christ.|Thou art the|ev- er- last- ing Son of|the Fa- ther. When thou|
[M:2/2][K:treble-8] c2 f4 (ed) | e4 e2 f2 | B2 (cd) e2 e2 | e2 ee f2 (ed | %57
w: took'st up- on *|thee to de-|liv- er * man, thou|didst not ab- hor the *|
[M:2/2][K:treble-8] e2 d4 c2 | B4 z2"^cresc.""^Dec." G2 | AAAB c3 B | A2 BA G4 | %61
w: * Vir- gin's|womb. When|thou hadst o- ver- come the|sharp- ness of death,|
[M:2/2][K:treble-8] z2!f!"^Full" AG F2 FF | B2 B3 ABc) |[M:3/2] d2 (cA) B2 d2 (c2 B2) | %64
w: thou didst o- pen the|king- dom of * *|heaven to * all be- liev\- *|
[M:2/2][K:treble-8] A4 z2"^Can.""^Thou" A2 | c3 B A2 (BA) | G6 AG | F2 F2 (GA) !>!B2- | %68
w: ers. *|sit- test at the *|right hand of|God, in the * glo\-|
[M:2/2][K:treble-8] BABc (dcBA) | B2"^Dec."!p! G4 A2 | F2 A2 A2 G2 | A2 F2 E2 E2 | %72
w: * ry of the Fa\- * * *|ther. We be-|lieve that thou shalt|come to be our|
[M:2/2][K:treble-8] E4 B2 !>!d2- | dc !>!A3 Bcd | !>!e4 B2"^cresc." !>!B2- | Bc d2 A3 (B | %76
w: judge. We there\-|* fore pray thee help thy|ser- vants, whom|* thou hast re- deem\-|
 c2) c2 B2 A2 | B2 B2 A4 |!f!"^Can." !>!e3 f dB !>!e2- | e2 e2 e2 c2 | c2 G2 c3 c | c2 B2 G4 | %82
w: * ed with thy|pre- cious blood.|Make them to be num\-|* bered with thy|saints in glo- ry|e- ver- last-|
 =A2"^Dec."!p! c4 c2 | e2 c2 f4 | e2 A2 c2 (B2- | B2 A2) B2 d2 | c2"^Can." c4 c2 | e2 c2 f4 | %88
w: ing. O Lord,|save thy peo-|ple, and bless thine|* * he- ri-|tage. Go- vern|them, and lift|
 e2 B2 c2 (BA) | B4 z2"^Dec."!f! G2- | G2 F2 G4 | z2 G2 GG F2 | G4 z2 G2 | G2 !>!c3 c B2 | %94
w: them up for ev\- *|er. Day|* by day|we mag- ni- fy|thee; And|we wor- ship thy|
 c4 z2 A2 | A2 !>!A2 F2 A2 | !>!c2"^Can."!p! c2 B2 A2 | G3 F E2 FG | A2 d2 c4 | %99
w: name ev-|er world with- out|end. Vouch- safe, O|Lord, to keep us this|day with- out|
 c2"^Dec." d2 d2 d2 | c2 e2 d2 B2 | e2 A2 c2 B2- | B2 c2 e4 | e4"^cresc.""^Full" c4 | e4 c2 c2 | %105
w: sin. O Lord, have|mer- cy up- on|us, have mer- cy|* up- on|us. O|Lord, let thy|
 f4 e4- | e4 z4 |!mf! !>!e3 B d2 !>!c2 |[M:3/2] B2 Bc d2 c2 B4 |[M:2/2][K:treble-8] A4 z2 e2 | %110
w: mer- cy||light- en. up- on|us, as our trust is in|thee. O|
 c4 z2 A2 | F2 AA A2 A2 | z2!f! d4 d2 | B3 c dB (e2- | e2 =d2)"^poco rit." e2 GA | %115
w: Lord, in|thee have I trust- ed:|let me|nev- er be con- found\-|* * ed. let me|
[M:3/2] !>!B (A/G/) (FG A)E !>!e6 | !fermata!c8 |] %117
w: ne- ver * be * * con- found-|ed.|
V:4
 x4 d2 c2 B4 | A6 x2 x4 |[M:2/2] x8 | x8 |[M:2/2][K:treble-8] x8 | x8 | x8 | x8 | x8 | %9
[M:2/2][K:treble-8] x8 | x8 | x8 | x8 | x8 | x8 | x8 |[M:3/2] x12 |[M:2/2][K:treble-8] x8 | x8 | %19
 x8 | x8 | x8 | x8 | x8 | x8 | x8 | x8 | x8 | x8 | x8 | x8 | x8 | x8 | x8 | x8 | x8 | x8 | x8 | %38
 x8 | x8 | x8 | x8 | x8 | x8 | x8 | x8 | x8 | x8 | x8 | x8 | x8 |[M:3/2] x12 | x12 | %53
[M:2/2][K:treble-8] x8 | x8 | x8 | x8 |[M:2/2][K:treble-8] x8 | x8 | x8 | x8 | %61
[M:2/2][K:treble-8] x8 | x8 |[M:3/2] x12 |[M:2/2][K:treble-8] x8 | x8 | x8 | x8 | %68
[M:2/2][K:treble-8] x8 | x8 | x8 | x8 |[M:2/2][K:treble-8] x8 | x8 | x8 | x8 | x8 | x8 | x8 | x8 | %80
 x8 | x8 | x8 | x8 | x8 | x8 | x8 | x8 | x8 | x8 | x8 | x8 | x8 | x8 | x8 | x8 | x8 | x8 | x8 | %99
 x8 | x8 | x8 | x8 | x8 | x8 | x8 | x8 | x8 |[M:3/2] x12 |[M:2/2][K:treble-8] x8 | x8 | x8 | x8 | %113
 x8 | x8 |[M:3/2] x12 | x8 |] %117
V:5
"^Full"!f! A,4 F,2 C,2 (D,2 E,2) | A,,4 A,4 G,2 F,2 |[M:2/2] E,2 C,2 E,2 E,2 | A,,2 A,4 E,2 | %4
w: We praise thee, O *|God: we know- ledge|thee to be the|Lord. All the|
[M:2/2] B,2 F,2 G,2 A,2 | E,2 E,2 B,2 B,,2 | D,2 A,,2 B,,4 | E,4 z2"^Dec." E,2 | E,2 A,2 F,2 E,2 | %9
w: earth doth wor- ship|thee, the Fa- ther|ev- er- last-|ing. To|thee all an- gels|
[M:2/2] D,2 D,2 D,2 (E,F,) | _G,6 E,2 | B,2 _G,2 B,2 B,,2 | E,2"^Can."!mf! E,4 E,2 | %13
w: cry a- loud: the *|heavens, and|all the powers there-|in. To thee|
 E,2 C,2 D,3 C, | B,,2 B,,2 A,,2"^dim." A,2 | G,G, A,2 F,2 F,2 |[M:3/2] E,4"^Full" E,3 F, G,2 A,2 | %17
w: che- ru- bin, and|se- ra- phin con-|ti- nu- al- ly do|cry, Ho- ly, Ho- ly,|
[M:2/2] E,2 E,"^cresc."F, G,2 C,2 | E,4 E,4 | A,,2"^Dec."!f! A,4 E,2 | F,3 E, D,2 C,C, | %21
w: Ho- ly, Lord God of|Sa- ba-|oth; Heaven and|earth are full of the|
[M:2/2] B,,2 B,,2 A,,4 | A,,2 B,,2 C,4 | F,2"^Can." F,2 F,F, D,2 | A,3 A, D,2 _G,2- | %25
w: ma- jes- ty|of thy glo-|ry. The glo- ri- ous|com- pa- ny of|
 G,_G, D,2 E,2 F,2 | E,4 A,2"^Dec." F,2 | F,2 D,2 A,3 A, | F,2 _G,4 F,2 | E,2 D,2 E,4 | %30
w: * the a- pos- tles|praise thee. The|good- ly fel- low-|ship of the|pro- phets praise|
 A,,2"^Can." A,2 A,3 B, | C2 F,F, G,2 A,2 | B,8 | E,2"^Dec." E,2 E,2 A,2 | D,2 F,4 E,2 | %35
w: thee. The no- ble|ar- my of mar- tyrs|praise|thee. The ho- ly|church through- out|
 D,3 C, B,,2 E,2 | B,,2 B,,2 E,2"^Can." E,2 | A,3 G, F,2 F,2 | E,E, D,2 A,2 (E,2 | %39
w: all the world doth|know- ledge thee; The|Fa- ther, of an|in- fi- nite ma- jes\-|
 B,4 E,2"^Dec." E,2 | A,3 G, F,2 F,2 | E,2 D,2 E,2 E,2 | A,,2"^Can." A,2 A,3 G, | A,2 F,2 E,2 D,2 | %44
w: * ty; Thine|ho- nour- a- ble,|true, and on- ly|Son; Al- so the|Ho- \-ly Ghost, the|
"^poco rit." E,2 E,2 A,,4 | z2"^Full, a tempo"!f! A,2 A,2 F,2 | C3 C F,2 A,2 | D,3 E,) F,4 | %48
w: Com- for- ter.|Thou art the|King of glo- ry,|O * Christ,|
[M:2/2] z2 F,2 A,2 E,2 | F,4 C,4 |"^Dec." A,4 A,2 G,2 |[M:3/2] F,2 F,2 E,3 E, D,2 A,,A,, | %52
w: of glo- ry,|O Christ.|Thou art the|ev- er- last- ing Son of the|
 E,4 A,,2"^Can."!p! A,4 G,2 |[M:2/2] A,2 F,2 B,4 | A,2 C4 F,2 | G,2 A,2 E,2 E,2 | A,2 CC B,4 | %57
w: Fa- ther. When thou|took'st up- on|thee to de-|liv- er man, thou|didst not ab- hor|
[M:2/2] A,2 B,2 (G,2 A,2) | E,4 z2"^cresc.""^Dec." E,2 | C,2 A,,2 A,3 G, | F,2 B,,2 E,2 E,D, | %61
w: the Vir- gin's *|womb. When|thou hadst o- ver-|come the sharp- ness of|
[M:2/2] C,4 z2"^Full"!f! D,C, | B,,2 B,,B,, E,2 E,E, |[M:3/2] F,2 A,2 D,2 D,2 E,4 | %64
w: death, thou didst|o- pen the king- dom of|heaven to all be- liev-|
[M:2/2] A,,4 z2"^Can." A,,2 | A,3 G, F,2 B,,2 | E,2 E,D, C,4 | z2 D,C, B,,3 B,, | %68
w: ers. Thou|sit- test at the|right hand of God,|in the glo- ry|
[M:2/2] E,(F, _G,2) F,4 | E,2"^Dec."!p! E,4 C,2 | D,3 C, B,,2 B,,2 | A,,2 B,,2 G,,2 A,,2 | %72
w: of the * Fa-|ther. We be-|lieve that thou shalt|come to be our|
[M:2/2] E,4 z2 B,,2 | D,3 C, A,,3 B,, | C,D, E,4 B,,2 | D,3 E, F,2 F,2 | C,3 D, E,2 F,2 | %77
w: judge. We|there- fore pray thee,|help thy ser- vants,|whom thou hast re-|deem- ed with thy|
 E,3 E, A,,2"^Can."!f! !>!A,2- | A,G,A,F, B,2 A,2- | A,2 E,4 F,2 | C,2 C,2 A,,3 A,, | %81
w: pre- cious blood. Make|* them to be num- bered|* with thy|saints in glo- ry|
 A,,2 B,,2 C,4 | F,2"^Dec."!p!"^," F,4 A,2 | E,2 F,2 D,4 | A,6 G,2 | F,3 E, D,2 B,,2 | %86
w: e- ver- last-|ing. O Lord,|save thy peo-|ple, and|bless thine he- ri-|
 F,2"^Can." F,4 A,2 | E,2 F,2 (D,E,F,)G, | A,2 G,2 F,4 | E,4 z2"^Dec."!f! E,2- | E,2 B,,2 E,4 | %91
w: tage. Go- vern|them, and lift * * them|up for ev-|er. Day|* by day|
 z2 E,2 E,E, B,,2 | E,4 z2 E,2 | E,2 !>!A,3 A, E,2 | A,4 z2 A,,2- | A,,B,, !>!C,2 D,2 C,2 | %96
w: we mag- ni- fy|thee; And|we wor- ship thy|name ev\-|* er world with- out|
 !>!A,,2"^Can."!p! A,2 G,2 F,2 | E,3 D, C,2 B,,B,, | A,,2 B,,2 C,4 | F,2"^Dec." D,2 D,2 D,2 | %100
w: end. Vouch- safe, O|Lord, to keep us this|day with- out|sin. O Lord, have|
 A,2 CC B,4 | A,6 E,2 | G,2 A,2 E,2 E,2 | A,,4"^cresc.""^Full" A,4 | E,4 F,2 F,2 | %105
w: mer- cy up- on|us, have|mer- cy up- on|us. O|Lord, let thy|
 D,4 A,2!mf! A,2- | A,E, _G,2 F,4 | E,4 D,2 A,,2 |[M:3/2] E,4 (F,G, A,2) E,4 | %109
w: mer- cy light\-|* en up- on|us, as our|trust is * * in|
[M:2/2] A,,4 z2 A,,2 | A,4 z2 D,2 | D,2 C,C, D,2 D,2 | z2!f! D,3 E,F,D, | _G,6 E,2 | %114
w: thee. O|Lord, in|thee have I trust- ed:|let me nev- er|be con-|
 B,4"^poco rit." E,2 E,E, |[M:3/2] E,2 D,2 C,2 (B,,A,,) E,4 | !fermata!A,,8 |] %117
w: found- ed. let me|nev- er be con\- * found-|ed.|

